icon-themes/breeze_svg/cmd/lc_mailmergecreatedocuments.svg

<svg viewBox="0 0 24 24" xmlns="http://www.w3.org/2000/svg"><path d="m5 3.9980469v16.0000001.001953h1 8v-1.001953h-8v-14.0000001h8v3 1h4v4.0019531h1v-3.59375-1.40625-.0097656l-3.992188-3.9921875-.007812.0097656v-.0097656h-1-8zm14 10.0019531-4 4v2h2l4-4zm-.310547 1.689453.591797.591797c-1.032854 1.021691-2.091495 2.111353-2.96875 3l-.59375-.59375z" fill="#4d4d4d"/></svg>

<svg viewBox="0 0 24 24" xmlns="http://www.w3.org/2000/svg">
  <path
     style="fill:#4d4d4d"
     d="M 5 3.9980469 L 5 19.998047 L 5 20 L 6 20 L 14 20 L 14 18.998047 L 6 18.998047 L 6 4.9980469 L 14 4.9980469 L 14 7.9980469 L 14 8.9980469 L 18 8.9980469 L 18 13 L 19 13 L 19 9.40625 L 19 8 L 19 7.9902344 L 15.007812 3.9980469 L 15 4.0078125 L 15 3.9980469 L 14 3.9980469 L 6 3.9980469 L 5 3.9980469 z M 19 14 L 15 18 L 15 20 L 17 20 L 21 16 L 19 14 z M 18.689453 15.689453 L 19.28125 16.28125 C 18.248396 17.302941 17.189755 18.392603 16.3125 19.28125 L 15.71875 18.6875 L 18.689453 15.689453 z "
     />
</svg>
